src/components/Icon/assets/pencil.svg

<svg width="24" height="24" viewBox="0 0 24 24" fill="none" xmlns="http://www.w3.org/2000/svg">
<path fill-rule="evenodd" clip-rule="evenodd" d="M19.6779 5.73642L18.4139 7.00042L16.9999 5.58642L18.2629 4.32242C18.5179 4.06742 18.8159 4.02942 18.9699 4.02942C19.1249 4.02942 19.4229 4.06742 19.6779 4.32242C20.0679 4.71242 20.0679 5.34642 19.6779 5.73642V5.73642ZM3.99988 20.0004V18.5854L4.58588 18.0004L5.99988 19.4144L5.41388 20.0004H3.99988ZM15.5859 7.00043L16.9999 8.41443L7.41388 18.0004L5.99988 16.5864L15.5859 7.00043ZM21.0919 2.90842V2.90842C20.5059 2.32242 19.7389 2.02942 18.9699 2.02942C18.2029 2.02942 17.4349 2.32242 16.8489 2.90842L1.99988 17.7574V22.0004H6.24288L21.0919 7.15142C22.2629 5.97942 22.2629 4.07942 21.0919 2.90842V2.90842Z" fill="#65676A"/>
</svg>

<svg xmlns="http://www.w3.org/2000/svg" width="24" height="24" viewBox="0 0 24 24">
    <path fill="#65676A" fill-rule="evenodd" d="M19.678 5.736L18.414 7 17 5.586l1.263-1.264c.255-.255.553-.293.707-.293.155 0 .453.038.708.293.39.39.39 1.024 0 1.414zM4 20v-1.415L4.586 18 6 19.414 5.414 20H4zM15.586 7L17 8.414 7.414 18 6 16.586 15.586 7zm5.506-4.092c-.586-.586-1.353-.879-2.122-.879-.767 0-1.535.293-2.121.88L1.999 17.756V22h4.244L21.092 7.151c1.17-1.172 1.17-3.072 0-4.243z"/>
</svg>
